apps/nuxt3-ssr/assets/minified-icons/Image Lightbulb.svg

<svg viewBox="0 0 24 24" fill="none" xmlns="http://www.w3.org/2000/svg"><path fill-rule="evenodd" clip-rule="evenodd" d="M9.06403 14.7637C9.06403 14.3308 8.85615 13.9298 8.50787 13.6911C6.76064 12.4937 5.71833 10.5158 5.71973 8.40052C5.72081 6.69217 6.40216 5.07958 7.63812 3.85975C8.87459 2.63943 10.498 1.97884 12.2061 2.00052C15.4464 2.04104 18.1489 4.4989 18.4924 7.71768C18.51 7.8824 18.3907 8.03024 18.2259 8.0478C18.0605 8.06524 17.9134 7.94608 17.8958 7.78132C17.5845 4.8645 15.1352 2.63715 12.1986 2.60043C10.6503 2.58035 9.18099 3.17995 8.05955 4.28678C6.9386 5.3931 6.32068 6.85417 6.31968 8.40088C6.31844 10.3181 7.26328 12.1107 8.84711 13.1962C9.35867 13.5468 9.66406 14.1328 9.66406 14.7637V15.2694H11.0394V13.1567C11.0394 12.994 10.9913 12.8369 10.9001 12.7022L10.2535 11.7463C10.0949 11.512 10.0111 11.2386 10.0111 10.9556V9.77559C9.60407 9.74987 9.28051 9.41151 9.28051 8.99808V8.8714C9.28051 8.45796 9.60411 8.11956 10.0111 8.09388V7.82948C10.0111 7.6638 10.1454 7.52948 10.3111 7.52948C10.4769 7.52948 10.6111 7.6638 10.6111 7.82948V8.0914H11.4245C11.5902 8.0914 11.7245 8.22572 11.7245 8.3914C11.7245 8.55708 11.5902 8.6914 11.4245 8.6914H10.0605C9.96294 8.6914 9.8805 8.77384 9.8805 8.8714V8.99808C9.8805 9.09564 9.96294 9.17807 10.0605 9.17807H14.1882C14.2858 9.17807 14.3682 9.09564 14.3682 8.99808V8.8714C14.3682 8.77384 14.2858 8.6914 14.1882 8.6914H12.8243C12.6586 8.6914 12.5243 8.55708 12.5243 8.3914C12.5243 8.22572 12.6586 8.0914 12.8243 8.0914H13.6376V7.82948C13.6376 7.6638 13.7719 7.52948 13.9376 7.52948C14.1033 7.52948 14.2376 7.6638 14.2376 7.82948V8.09388C14.6447 8.1196 14.9682 8.45796 14.9682 8.8714V8.99808C14.9682 9.41151 14.6446 9.74991 14.2376 9.77559V10.9556C14.2376 11.2386 14.1538 11.512 13.9952 11.7463L13.3486 12.7022C13.2575 12.8369 13.2093 12.9941 13.2093 13.1567V15.2695H14.5847V14.747C14.5847 14.1276 14.8924 13.5462 15.4078 13.192C16.7822 12.2475 17.6854 10.7608 17.8859 9.11328C17.9059 8.94876 18.0558 8.83172 18.2199 8.85168C18.3844 8.87168 18.5015 9.02124 18.4815 9.18572C18.2603 11.0041 17.2638 12.6445 15.7476 13.6865C15.3951 13.9287 15.1847 14.3252 15.1847 14.747V15.3237C15.4014 15.4207 15.553 15.638 15.553 15.8905V16.5217C15.553 16.6393 15.5196 16.7489 15.4626 16.8427C15.5196 16.9366 15.553 17.0462 15.553 17.1638V17.795C15.553 17.9126 15.5196 18.0222 15.4626 18.1161C15.5196 18.2099 15.553 18.3195 15.553 18.4371V19.0683C15.553 19.4108 15.2745 19.6894 14.932 19.6894H14.7582L14.1032 20.7481C13.9368 21.0169 13.6603 21.1872 13.3505 21.2174V21.4026C13.3505 21.9966 12.8672 22.4799 12.2731 22.4799H11.9756C11.3815 22.4799 10.8982 21.9966 10.8982 21.4026V21.2174C10.5884 21.1872 10.3119 21.0169 10.1455 20.7482L9.49043 19.6894H9.31667C8.97427 19.6894 8.69567 19.4108 8.69567 19.0683V18.4371C8.69567 18.3195 8.72911 18.2099 8.78611 18.1161C8.72911 18.0222 8.69567 17.9126 8.69567 17.795V17.1638C8.69567 17.0462 8.72911 16.9366 8.78611 16.8427C8.72911 16.749 8.69567 16.6393 8.69567 16.5217V15.8905C8.69567 15.638 8.84731 15.4207 9.06403 15.3237V14.7637ZM12.2732 21.88C12.5364 21.88 12.7506 21.6658 12.7506 21.4026V21.2228H11.4983V21.4026C11.4983 21.6658 11.7125 21.88 11.9757 21.88H12.2732ZM13.2515 20.6227C13.3916 20.6227 13.5193 20.5516 13.593 20.4324L14.0528 19.6894H10.1961L10.6559 20.4324C10.7296 20.5516 10.8573 20.6227 10.9973 20.6227H13.2515ZM10.6111 10.9556C10.6111 11.1183 10.6593 11.2754 10.7504 11.4101L11.3971 12.366C11.5556 12.6003 11.6394 12.8737 11.6394 13.1567V15.2695H12.6095V13.1567C12.6095 12.8737 12.6933 12.6003 12.8518 12.366L13.4985 11.4101C13.5896 11.2754 13.6378 11.1183 13.6378 10.9556V9.77807H10.6111V10.9556ZM9.31671 15.8694C9.30511 15.8694 9.29571 15.8789 9.29571 15.8905V16.5217C9.29571 16.5333 9.30511 16.5428 9.31671 16.5428H14.9322C14.9438 16.5428 14.9532 16.5333 14.9532 16.5217V15.8905C14.9532 15.8789 14.9438 15.8694 14.9322 15.8694H9.31671ZM9.31671 17.1427C9.30511 17.1427 9.29571 17.1522 9.29571 17.1638V17.795C9.29571 17.8066 9.30511 17.8161 9.31671 17.8161H14.9321C14.9437 17.8161 14.9532 17.8066 14.9532 17.795V17.1638C14.9532 17.1522 14.9437 17.1427 14.9321 17.1427H9.31671ZM9.31671 18.4161C9.30511 18.4161 9.29571 18.4255 9.29571 18.4371V19.0684C9.29571 19.08 9.30511 19.0894 9.31671 19.0894H14.9321C14.9437 19.0894 14.9532 19.08 14.9532 19.0684V18.4371C14.9532 18.4255 14.9437 18.4161 14.9321 18.4161H9.31671Z" fill="currentColor"/><path d="M3.85709 6.06932L4.79241 6.60932C4.93609 6.69224 5.11949 6.64284 5.20221 6.49952C5.28505 6.35604 5.23589 6.17256 5.09241 6.08972L4.15709 5.54972C4.01349 5.46684 3.83009 5.51604 3.74729 5.65952C3.66441 5.803 3.71361 5.98648 3.85709 6.06932Z" fill="currentColor"/><path d="M19.1569 10.8092L20.0922 11.3492C20.2359 11.4322 20.4193 11.3828 20.502 11.2394C20.5848 11.096 20.5357 10.9125 20.3922 10.8296L19.4569 10.2896C19.3133 10.2068 19.1299 10.256 19.0471 10.3994C18.9642 10.5429 19.0134 10.7264 19.1569 10.8092Z" fill="currentColor"/><path d="M4.38 8.74948H3.3C3.13432 8.74948 3 8.61516 3 8.44948C3 8.28379 3.13428 8.14948 3.3 8.14948H4.38C4.54572 8.14948 4.68 8.28379 4.68 8.44948C4.68 8.61516 4.54572 8.74948 4.38 8.74948Z" fill="currentColor"/><path d="M19.5693 8.44948C19.5693 8.61516 19.7036 8.74948 19.8693 8.74948H20.9493C21.1151 8.74948 21.2493 8.61516 21.2493 8.44948C21.2493 8.28379 21.1151 8.14948 20.9493 8.14948H19.8693C19.7037 8.14948 19.5693 8.28379 19.5693 8.44948Z" fill="currentColor"/><path d="M4.79239 10.2897C4.93579 10.2068 5.11935 10.2559 5.20219 10.3995C5.28503 10.5429 5.23587 10.7264 5.09239 10.8093L4.15707 11.3493C4.01375 11.4321 3.83015 11.3831 3.74727 11.2395C3.66443 11.096 3.71359 10.9125 3.85707 10.8297L4.79239 10.2897Z" fill="currentColor"/><path d="M19.4569 6.60931L20.3922 6.06931C20.5357 5.98647 20.5848 5.80299 20.502 5.65951C20.4192 5.51599 20.2356 5.46687 20.0922 5.54971L19.1569 6.08971C19.0134 6.17255 18.9642 6.35603 19.0471 6.49951C19.13 6.64311 19.3135 6.69215 19.4569 6.60931Z" fill="currentColor"/></svg>

<svg fill="none" xmlns="http://www.w3.org/2000/svg" viewBox="0 0 24 24"><path fill-rule="evenodd" clip-rule="evenodd" d="M9.064 14.764c0-.433-.208-.834-.556-1.073a6.407 6.407 0 0 1-2.788-5.29A6.35 6.35 0 0 1 7.638 3.86 6.353 6.353 0 0 1 12.206 2a6.403 6.403 0 0 1 6.286 5.718.3.3 0 1 1-.596.063 5.803 5.803 0 0 0-5.697-5.18 5.753 5.753 0 0 0-4.14 1.686A5.754 5.754 0 0 0 6.32 8.4a5.807 5.807 0 0 0 2.528 4.795c.512.35.817.937.817 1.568v.505h1.375v-2.112a.807.807 0 0 0-.139-.455l-.646-.956a1.405 1.405 0 0 1-.243-.79v-1.18a.78.78 0 0 1-.73-.778v-.127a.78.78 0 0 1 .73-.777v-.265a.3.3 0 1 1 .6 0v.262h.813a.3.3 0 1 1 0 .6H10.06a.182.182 0 0 0-.18.18v.127c0 .098.083.18.18.18h4.128c.098 0 .18-.082.18-.18v-.127a.182.182 0 0 0-.18-.18h-1.364a.3.3 0 1 1 0-.6h.814V7.83a.3.3 0 1 1 .6 0v.265a.78.78 0 0 1 .73.777v.127a.78.78 0 0 1-.73.778v1.18c0 .283-.084.556-.243.79l-.646.956a.808.808 0 0 0-.14.455v2.113h1.376v-.523c0-.62.307-1.2.823-1.555a5.805 5.805 0 0 0 2.478-4.079.3.3 0 0 1 .596.073 6.405 6.405 0 0 1-2.734 4.5 1.289 1.289 0 0 0-.563 1.061v.577a.621.621 0 0 1 .368.566v.632a.616.616 0 0 1-.09.32c.057.095.09.204.09.322v.631a.617.617 0 0 1-.09.321c.057.094.09.204.09.321v.631a.622.622 0 0 1-.621.621h-.174l-.655 1.06a.994.994 0 0 1-.752.468v.186c0 .594-.484 1.077-1.078 1.077h-.297a1.079 1.079 0 0 1-1.078-1.077v-.186a.995.995 0 0 1-.752-.469L9.49 19.69h-.173a.622.622 0 0 1-.621-.62v-.632c0-.117.033-.227.09-.32a.617.617 0 0 1-.09-.322v-.631c0-.118.033-.227.09-.321a.616.616 0 0 1-.09-.321v-.631c0-.253.151-.47.368-.567v-.56Zm3.21 7.116a.478.478 0 0 0 .477-.477v-.18h-1.253v.18c0 .263.215.477.478.477h.297Zm.978-1.257c.14 0 .267-.071.341-.19l.46-.744h-3.857l.46.743c.074.12.201.19.341.19h2.255Zm-2.64-9.667c0 .162.047.32.138.454l.647.956c.159.234.242.508.242.79v2.114h.97v-2.113c0-.283.084-.557.243-.791l.646-.956a.808.808 0 0 0 .14-.454V9.778H10.61v1.178Zm-1.295 4.913a.021.021 0 0 0-.021.021v.632c0 .011.01.02.02.02h5.616c.012 0 .021-.009.021-.02v-.631a.021.021 0 0 0-.02-.022H9.316Zm0 1.274a.021.021 0 0 0-.021.02v.632c0 .012.01.021.02.021h5.616c.012 0 .021-.01.021-.021v-.631a.021.021 0 0 0-.02-.021H9.316Zm0 1.273a.021.021 0 0 0-.021.021v.631c0 .012.01.021.02.021h5.616c.012 0 .021-.009.021-.02v-.632a.021.021 0 0 0-.02-.02H9.316Z" fill="currentColor"/><path d="m3.857 6.07.935.54a.3.3 0 0 0 .3-.52l-.935-.54a.3.3 0 1 0-.3.52ZM19.157 10.81l.935.54a.3.3 0 1 0 .3-.52l-.935-.54a.3.3 0 0 0-.3.52ZM4.38 8.75H3.3a.3.3 0 0 1 0-.6h1.08a.3.3 0 1 1 0 .6ZM19.57 8.45a.3.3 0 0 0 .3.3h1.08a.3.3 0 1 0 0-.6h-1.08a.3.3 0 0 0-.3.3ZM4.792 10.29a.3.3 0 1 1 .3.52l-.935.54a.3.3 0 1 1-.3-.52l.935-.54ZM19.457 6.61l.935-.54a.3.3 0 0 0-.3-.52l-.935.54a.3.3 0 1 0 .3.52Z" fill="currentColor"/></svg>
